X: 27382
T: Mo Mhàiri Mhin Mheall' Shuileach
R: strathspey
M: 4/4
K: Adorian
|:A<B e<e e>d B<g|G<G d<G B>A G>B|A<B e<e e>d B<g|a>e g>B A/A/A A>B:|
|:A<a a>g a>e e>f|g>a g>e d>e g<d|e>d e<g a>g e<a|g>a g>B B<A A>B:|

